svg/u1f50b.svg

<svg viewBox="0 0 128 128" xmlns="http://www.w3.org/2000/svg">
  <g>
    <path d="M34.02,20.35v88.57c0,7.92,13.42,14.34,29.98,14.34c16.56,0,29.98-6.42,29.98-14.34V20.35H34.02z" fill="#8DCC47"/>
    <path d="M94,20.36c0,9.44-15.79,15.37-29.98,15.37c-13.82,0-29.02-5.96-29.98-15.37 c-1.03-10.14,13.42-17.1,29.98-17.1S94,10.92,94,20.36z" fill="#9EE350"/>
    <g>
      <ellipse cx="64.2" cy="17.55" rx="23.64" ry="11.43" fill="#D9D9D9"/>
      <path d="M76.56,6.44c0,0,0,0.25,0,0.66C76.59,6.69,76.56,6.44,76.56,6.44z" fill="#9E9E9E"/>
    </g>
    <path d="M76.99,51.54c0-0.66-0.25-1.06-0.86-1.3c-0.57-0.23-1.4,0.01-2.25,0.23 c-1.68,0.42-3.41,0.66-4.97,0.64c-0.63-0.01-0.57-0.61-0.57-1.16c0-0.43,0-3.94,0-5.48c0-0.6-0.07-1.36-1.18-1.36 c-0.67,0-1.48,0.18-3.17,0.2c-1.69-0.01-2.5-0.2-3.17-0.2c-1.11,0-1.18,0.76-1.18,1.36c0,1.54,0,5.05,0,5.48 c0,0.55,0.06,1.15-0.57,1.16c-1.56,0.02-3.29-0.22-4.97-0.64c-0.86-0.21-1.68-0.45-2.25-0.23c-0.61,0.25-0.86,0.64-0.86,1.3 l-0.03,5.09c0.28,0.79,0.57,1.36,0.89,1.53c0.94,0.49,2.99,1.24,6.27,1.4c0.65,0.03,1.38-0.19,1.53,0.52c0.07,0.35,0,4.67,0,6.42 c0,1.59,2.3,1.76,3.54,1.86c0.27,0.02,1.35,0.02,1.61,0c1.23-0.11,3.54-0.27,3.54-1.86c0-1.75-0.07-6.07,0-6.42 c0.15-0.71,0.87-0.49,1.53-0.52c3.28-0.16,5.33-0.92,6.27-1.4c0.31-0.16,0.61-0.73,0.89-1.53L76.99,51.54z" fill="#FFFFFF"/>
    <path d="M75.07,102.56c0,0-3.85,1.17-11.07,1.17s-11.07-1.17-11.07-1.17c-1.37-0.2-1.95,0.87-1.95,1.95v4.22 c0,1,0.65,1.93,1.81,2.5c2.39,1.18,6.25,1.98,10.87,1.93c0.12,0,0.23-0.01,0.35-0.01c0.12,0,0.23,0.01,0.35,0.01 c4.63,0.05,8.48-0.75,10.87-1.93c1.16-0.57,1.81-1.5,1.81-2.5v-4.22C77.03,103.43,76.44,102.36,75.07,102.56z" fill="#FFFFFF"/>
    <path d="M58.59,27.81c1.6-1.54-4.16-2.87-6.88-3.8c-3.42-1.17-7-3.23-8.09-7.26 c-0.82-3.04-2.25-2.09-2.51-1.73c-0.37,0.51-1.8,3.49,0.95,6.8c1.89,2.28,4.95,4.01,7.56,4.89C53.19,27.92,57.53,28.83,58.59,27.81 z" fill="#F5F5F5"/>
    <path d="M56,13.18c0.33-1.12,3.23-1.81,4.99-1.83c3.01-0.04,6.11,2.27,6.57,3.06 c1.29,2.2-1.65,2.98-6.79,2.53C57.31,16.64,55.67,14.31,56,13.18z" fill="#F5F5F5"/>
    <path d="M73.11,15.01c-0.35-0.62-0.71-1.27-1.05-1.9c-0.36-0.65-0.35,0.05-0.43,0.32 c-0.41,1.42-1.22,2.05-1.79,2.36c-1.72,0.92-3.78,1.36-5.83,1.33c-2.06,0.02-4.11-0.41-5.83-1.33c-0.58-0.31-1.38-0.94-1.79-2.36 c-0.08-0.28-0.07-0.97-0.43-0.32c-0.35,0.63-0.7,1.28-1.05,1.9c-0.9,1.58-0.12,3.33,1.03,4.45c2.01,1.95,5.13,2.85,8.08,2.85h0h0 c2.95,0,6.07-0.9,8.08-2.85C73.24,18.33,74.01,16.58,73.11,15.01z" fill="#9E9E9E"/>
  </g>
</svg>

<svg viewBox="0 0 128 128" xmlns="http://www.w3.org/2000/svg">
  <defs/>
  <path d="M34.02,20.35 L34.02,108.92 C34.02,116.84 47.44,123.26 64,123.26 C80.56,123.26 93.98,116.84 93.98,108.92 L93.98,20.35 L34.02,20.35 Z" fill="#8DCC47"/>
  <path d="M94,20.36 C94,29.8 78.21,35.73 64.02,35.73 C50.2,35.73 35,29.77 34.04,20.36 C33.01,10.22 47.46,3.26 64.02,3.26 C80.58,3.26 94,10.92 94,20.36 Z" fill="#9EE350"/>
  <path d="M87.84,17.55 A23.64 11.43 0 1 1 40.56,17.55 A23.64 11.43 0 1 1 87.84,17.55 Z" fill="#D9D9D9"/>
  <path d="M76.56,6.44 C76.56,6.44 76.56,6.69 76.56,7.1 C76.59,6.69 76.56,6.44 76.56,6.44 Z" fill="#9E9E9E"/>
  <path d="M76.99,51.54 C76.99,50.88 76.74,50.48 76.13,50.24 C75.56,50.01 74.73,50.25 73.88,50.47 C72.2,50.89 70.47,51.13 68.91,51.11 C68.28,51.1 68.34,50.5 68.34,49.95 C68.34,49.52 68.34,46.01 68.34,44.47 C68.34,43.87 68.27,43.11 67.16,43.11 C66.49,43.11 65.68,43.29 63.99,43.31 C62.3,43.3 61.49,43.11 60.82,43.11 C59.71,43.11 59.64,43.87 59.64,44.47 C59.64,46.01 59.64,49.52 59.64,49.95 C59.64,50.5 59.7,51.1 59.07,51.11 C57.51,51.13 55.78,50.89 54.1,50.47 C53.24,50.26 52.42,50.02 51.85,50.24 C51.24,50.49 50.99,50.88 50.99,51.54 L50.96,56.63 C51.24,57.42 51.53,57.99 51.85,58.16 C52.79,58.65 54.84,59.4 58.12,59.56 C58.77,59.59 59.5,59.37 59.65,60.08 C59.72,60.43 59.65,64.75 59.65,66.5 C59.65,68.09 61.95,68.26 63.19,68.36 C63.46,68.38 64.54,68.38 64.8,68.36 C66.03,68.25 68.34,68.09 68.34,66.5 C68.34,64.75 68.27,60.43 68.34,60.08 C68.49,59.37 69.21,59.59 69.87,59.56 C73.15,59.4 75.2,58.64 76.14,58.16 C76.45,58 76.75,57.43 77.03,56.63 L76.99,51.54 Z" fill="#FFFFFF"/>
  <path d="M75.07,102.56 C75.07,102.56 71.22,103.73 64,103.73 C56.78,103.73 52.93,102.56 52.93,102.56 C51.56,102.36 50.98,103.43 50.98,104.51 L50.98,108.73 C50.98,109.73 51.63,110.66 52.79,111.23 C55.18,112.41 59.04,113.21 63.66,113.16 C63.78,113.16 63.89,113.15 64.01,113.15 C64.13,113.15 64.24,113.16 64.36,113.16 C68.99,113.21 72.84,112.41 75.23,111.23 C76.39,110.66 77.04,109.73 77.04,108.73 L77.04,104.51 C77.03,103.43 76.44,102.36 75.07,102.56 Z" fill="#FFFFFF"/>
  <path d="M58.59,27.81 C60.19,26.27 54.43,24.94 51.71,24.01 C48.29,22.84 44.71,20.78 43.62,16.75 C42.8,13.71 41.37,14.66 41.11,15.02 C40.74,15.53 39.31,18.51 42.06,21.82 C43.95,24.1 47.01,25.83 49.62,26.71 C53.19,27.92 57.53,28.83 58.59,27.81 Z" fill="#F5F5F5"/>
  <path d="M56,13.18 C56.33,12.06 59.23,11.37 60.99,11.35 C64,11.31 67.1,13.62 67.56,14.41 C68.85,16.61 65.91,17.39 60.77,16.94 C57.31,16.64 55.67,14.31 56,13.18 Z" fill="#F5F5F5"/>
  <path d="M73.11,15.01 C72.76,14.39 72.4,13.74 72.06,13.11 C71.7,12.46 71.71,13.16 71.63,13.43 C71.22,14.85 70.41,15.48 69.84,15.79 C68.12,16.71 66.06,17.15 64.01,17.12 C61.95,17.14 59.9,16.71 58.18,15.79 C57.6,15.48 56.8,14.85 56.39,13.43 C56.31,13.15 56.32,12.46 55.96,13.11 C55.61,13.74 55.26,14.39 54.91,15.01 C54.01,16.59 54.79,18.34 55.94,19.46 C57.95,21.41 61.07,22.31 64.02,22.31 L64.02,22.31 L64.02,22.31 C66.97,22.31 70.09,21.41 72.1,19.46 C73.24,18.33 74.01,16.58 73.11,15.01 Z" fill="#9E9E9E"/>
</svg>
